X:1
T:Title
%%score { ( 1 4 ) | ( 2 3 ) }
L:1/8
Q:1/4=100
M:4/4
K:D
V:1 treble nm="Grand Piano"
V:4 treble 
V:2 bass 
V:3 bass 
V:1
 [A,DF]2 [A,DF]2[K:bass] [G,CE]2 [F,D]2 | .[A,CE]2 [A,CG]2 [A,DF]4 | [A,FA]2 [=FB]c d2 ^F2 | %3
w: S.~M.~Bixby * * *|||
 [EG]2 [DF]2 [CE]4 | F2 G2 ^G2 A2 | z4 c4 | [Dd]2 E2 A2 z2 | %7
w: ||||
[M:8/4] .[B,DA]2 C-[CE][K:bass] [F,D]4 z8 |[M:4/4][K:treble] [B,DG]8 | [A,DF]8 |] %10
w: |||
V:2
 D,2 D,2 A,,2 D,2 | z F A,,2 D,4 | D,2 ^G,[=G,E] [D,F,D]2 [D,A,D]2 | [C,A,]2 [D,A,]2 [A,,A,]4 | %4
 [D,A,D]2 [E,A,C]2 [=F,B,D]2 [^F,A,D]2 | z B,[G,E]-[G,B,E] E2 z2 | z2 .A,2 .[G,E]2 D,2 | %7
[M:8/4] z .G2 G, D,4 z8 |[M:4/4] G,,8 | D,8 |] %10
V:3
 x8 | A,,2 z2 z4 | z2 D,2 z4 | x8 | x8 | [G,D]2 .^A,2 [F,A,]4 | %6
 .[B,,B,]2 C,-[C,G,] D,-[D,F,] z =C |[M:8/4] G,,2 A,,2 z4 z8 |[M:4/4] x8 | x8 |] %10
V:4
 x4[K:bass] x4 | x8 | x8 | x8 | x8 | BdcB z2 FE | z F,cB z D .[A,DF]2 | %7
[M:8/4] z2 .[A,F]2[K:bass] z4 z8 |[M:4/4][K:treble] x8 | x8 |] %10

